!!!OTL:
!!!ONR: No. 11
!! From Madeleine Beland,
!! "Chansons de Voyageurs, Coureurs de Bois et Forestiers"
!! Quebec: Les Presses de l'universite/ Laval, 1982
!! ISBN 2-7637-6942-X
**kern
*clefG2
*k[f#]
*M2/4
8r
8d
=
8d
8g
16g
16d
16d
16d
=
8f#
8e
8d
16e
16d
=
8f#
16f#
16f#
8f#
16g
16f#
*M1/4
=
8e
8g
*M2/4
=
4g;
4dd
=
8b
8b
8g
8b
*M3/4
=
8d
16d
16d
8f#
16g
16b
16cc
16dd
16cc
16a
*M1/4
=
8g
8dd
*M2/4
=
4dd
4dd
=
8b
8b
8g
8b
=
8d
16d
16d
8f#
16a
16a
=
8cc
16cc
16cc
16cc
16f#
16f#
16f#
*M1/4
=
8a
8g
*M2/4
=
4g
==
*-
